X: 3
T: Donald, Willie, and the Dog
M: 9/8
L: 1/8
R: slip jig
K: G Mixolydian 
|: G2 B BGB A2 F | G2 B BGB A3 | G2 B BGB A2 F | B2 G GAF G3 :|
|: A2 d dGB A2 G | A2 d dGB A3 | A2 d dGB A2 G | B2 G GAF G3 :|
|: G2 B GAA BGG | G2 A GBB A3 | G2 B GAA BGG | B2 G GAF G3 :|
|: d2 B Bec d2 c | BdB BcB A3 | d2 B Bec d2 c | B2 G GAF G3 :|
